X:1
T:Warlike Seamen
M:2/2
L:1/4
K:F
 C| C F F F| F2F/2-G/2 A| G F E D| C3| B| G G G c| A G F F| A c B A|\
 G3| G/2A/2| B3/2 G/2 A B| c- A F F| A c B A| G3| C| F3/2 G/2 A3/2 B/2|\
 c cG/2-A/2 B| A F D E| F3||
